!!!!SEGMENT: pl-wtm--r-553-m_moniuszko-stanislaw--paria-akt-3.krn
!!!cenid: 18xx:3042
!!!COM: Moniuszko, Stanisław
!!!COM-rismid: pe30008351
!!!CDT: 1819/05/05-1872/06/04
!!!CNT: Polish
!!!GTL: Paria
!!!OTL: Akt 3
!!!PDT:
!!!AGN: Secular
!!!SMS-siglum: PL-Wtm
!!!SMS-shelfmark: R 553/M
!!!SMS-shelfwork: G
!!!SMS-variant:
!!!SMS-altvar:
!!!NIFC-rismid: 1001091075
!!!URL-scan: http://repozytorium.nifc.pl/skany/pl-wtm-nut--r552-553-554-555-557-559m
!!!ONB-nifc: UWAGA: skan 0013
**kern	**kern	**text
*part2	*part1	*part1
*staff2	*staff1	*staff1
*Iempty	*Iempty	*
*I"	*I"	*
*clefF4	*clefF4	*
*k[f#]	*k[f#]	*
*a:	*a:	*
*M4/4	*M4/4	*
*met(c)	*met(c)	*
*all\right	*all\right	*
=1	=1	=1
8.r	2r	.
16E\KL	.	.
8.D#X\	.	.
16E\Jk	.	.
!	!LO:TX:a:t=Chór:rj	!
4E\	4e/	Zgon
4r	4E/	mu!
=2	=2	=2
8.r	2r	.
16C/	.	.
8.BB/L	.	.
16C/Jk	.	.
!	!LO:TX:a:t=Akebar	!
4C/	8r	.
.	8G\	Wstrzy-
4r	8.c\	-maj-
.	16B\	-cie
=3	=3	=3
8.r	4A\	się.
16AA/	.	.
8.GG#X/L	4r	.
16AA/Jk	.	.
4AA/	4r	.
4r	8A\	Wo-
.	8A\	-la
=4	=4	=4
*tremolo	*2\right	*
32F#\LLL 32A 32c 32d	2d\	bo-
32F#\ 32A 32c 32d	.	.
32F#\ 32A 32c 32d	.	.
32F#\ 32A 32c 32d	.	.
32F#\ 32A 32c 32d	.	.
32F#\ 32A 32c 32d	.	.
32F#\ 32A 32c 32d	.	.
32F#\ 32A 32c 32d	.	.
32F#\ 32A 32c 32d	.	.
32F#\ 32A 32c 32d	.	.
32F#\ 32A 32c 32d	.	.
32F#\ 32A 32c 32d	.	.
32F#\ 32A 32c 32d	.	.
32F#\ 32A 32c 32d	.	.
32F#\ 32A 32c 32d	.	.
32F#\ 32A 32c 32d	.	.
32F#\ 32A 32c 32d	4A\	-gów
32F#\ 32A 32c 32d	.	.
32F#\ 32A 32c 32d	.	.
32F#\ 32A 32c 32d	.	.
32F#\ 32A 32c 32d	.	.
32F#\ 32A 32c 32d	.	.
32F#\ 32A 32c 32d	.	.
32F#\ 32A 32c 32d	.	.
32F#\ 32A 32c 32d	8r	.
32F#\ 32A 32c 32d	.	.
32F#\ 32A 32c 32d	.	.
32F#\ 32A 32c 32d	.	.
32F#\ 32A 32c 32d	8A\	ska-
32F#\ 32A 32c 32d	.	.
32F#\ 32A 32c 32d	.	.
32F#\JJJ 32A 32c 32d	.	.
!!LO:LB:g=original
=5	=5	=5
!	!LO:TX:a:t=Recit	!
16F#\LL 16A 16c 16d	8.A\	-zu-
16F#\ 16A 16c 16d	.	.
16F#\ 16A 16c 16d	.	.
16F#\JJ 16A 16c 16d	16D\	-jąc
*Xtremolo	*	*
8F#\ 8A 8c 8d	8D\	ich
8r	8D\	na
2r	4F#\	wie-
.	8F#\	-czne
.	8G\	wy-
=6	=6	=6
1r	4B\	-gna-
.	8A\	-nie
.	16r	.
.	16A\	w_mę-
.	4A\	-cza-
.	8.B\	-rni
.	16c\	ot-
=7	=7	=7
1r	4c\	-chła-
.	8D\	-nie
.	8D\	wys-
.	8D\	-tę-
.	8F#\	-pnych
.	8A\	wtrą-
.	8c\	-cić
!!LO:LB:g=original
=8	=8	=8
!	!LO:TX:a:t=a tempo	!
4r	4B\	chce.
4GG\ 4BB 4D 4G	8r	.
.	8BB/	Nad
2r	8.C/	ich
.	16D/	prze-
.	8.E\	-la-
.	16F#\	-ną
=9	=9	=9
8.r	4G\	krew
16BB\ 16E 16G	.	.
4BB\ 4E 4G	8r	.
.	8C/	stra-
2r	8.D\	-szniej-
.	16E\	-szy
.	8.F#\	dla
.	16G\	nich
=10	=10	=10
8.r	4.A\	bę-
16C#X\ 16E 16G	.	.
4D\ 4F# 4A	.	.
.	8A\	-dzie
4r	8B\L	nie-
.	8A\J	.
4Cn\ 4D 4F# 4A	8F#\	-u-
.	8D\	-bła-
!!LO:LB:g=original
=11	=11	=11
4BB\ 4D 4G	[2d\	-ga-
4AA\ 4D 4F# 4c	.	.
8GG\ 8D 8G 8B	8.d\]	.
16r	.	.
16F#\KL	16A\	-ny
8.G\	8.B\	wie-
16D\Jk	16F#\	-czną
=12	=12	=12
8.E/L	8.G\	gro-
16BB/K	16D#X\	-źbą
8.C/	8.E\	stra-
16C/Jk 16E	16G\	-sznej
4BB/ 4E 4G	4.B;\	Bra-
4BB;/ 4D#X 4F#	.	.
.	8D#X\	-hmy
=13	=13	=13
1EE 1E	1E	gniew.
==	==	==
*-	*-	*-
!!!system-decoration: {(s1,s2)}
!!!AIN: 2 empty
!!!ENC: Anastazja Marusiak
!!!END: 2021-09-08
!!!ENC: Marta Chmielewska
!!!END: 2021-09-27
